X:5
T:Lady Mary Menzies Reel
R:strathspey or reel
% for strathspey set more dotted rhythms could be added
C:traditional
O:18th century Scottish
B:Bremner's Collections, 1757
N:melodic codes 5351H 5362 (5351 5362)
N:an early setting of Lucy Campbell
Z:Paul Stewart Cranford (P.S.C.), <http://www.cranfordpub.com>
L:1/8
Q:288
M:C
K:FLyd
% Bremner used a no flat and sharp signature as defined above
% 6 note scale with no 4ths
(f|c)FAF cFfd|cFAF dGGA|cFAF cFag|fdcA cFF:|
|:(e|f)cce f>gag|fdTcA gdd(e|f)dcA (f/e/f/g/ a)g|fdTcA cFF:|
